X:0680
M:C
L:1/8
Q:1/2=84
K:D
e2|dcde   f2ed|cAce  a2e2|  (f/a/^g/a/) (g/f/e/d/) c2TB2|A2A>A A2:|
z2|a4     fdfa|gabg  e4  |   g4                    ec`eg|fgaf  d2
zA|d>fe>g f2ze|fagb  a3 g|(3(fga)        b(a/g/)   f2 e2|d2d>d d2:|

